configs/network-logos/neon.svg

<svg width="101" height="30" viewBox="0 0 101 30" fill="none" xmlns="http://www.w3.org/2000/svg">
<mask id="mask0_1_64" style="mask-type:luminance" maskUnits="userSpaceOnUse" x="0" y="0" width="30" height="30">
<path d="M30 0H0V30H30V0Z" fill="white"/>
</mask>
<g mask="url(#mask0_1_64)">
<path d="M12.835 14.102L1.79785 3.07153V14.102H12.835Z" fill="#FF86FF"/>
<path d="M1.54242 0.267108L15.6377 14.3624C15.8048 14.5312 15.8987 14.7591 15.8987 14.9967C15.8987 15.2343 15.8048 15.4622 15.6377 15.631C15.5514 15.72 15.4474 15.7897 15.3323 15.8357C15.2173 15.8818 15.0938 15.903 14.97 15.8981H0.901452C0.78283 15.899 0.665178 15.8763 0.555414 15.8313C0.445649 15.7863 0.345951 15.7199 0.26207 15.636C0.17819 15.5522 0.111805 15.4524 0.0668201 15.3427C0.0218351 15.2329 -0.000863474 15.1153 2.51153e-05 14.9967V0.894752C0.00122979 0.716556 0.0552103 0.542717 0.155174 0.395196C0.255137 0.247674 0.396592 0.133094 0.561649 0.0659279C0.726706 -0.00123831 0.907995 -0.0179697 1.08256 0.0178388C1.25713 0.0536473 1.41714 0.140383 1.54242 0.267108Z" fill="#FF86FF"/>
<path d="M17.1748 15.8979L28.2053 26.9284V15.8979H17.1748Z" fill="#E200F1"/>
<path d="M28.4578 29.7263L14.3625 15.631C14.1953 15.4623 14.1016 15.2343 14.1016 14.9967C14.1016 14.7591 14.1953 14.5312 14.3625 14.3624C14.4505 14.2763 14.5551 14.2088 14.6698 14.1641C14.7845 14.1193 14.9071 14.0982 15.0302 14.102H29.1321C29.3694 14.102 29.597 14.1963 29.7648 14.3641C29.9326 14.5319 30.0269 14.7594 30.0269 14.9967V29.0986C30.0278 29.2167 30.0053 29.3338 29.9607 29.4431C29.9161 29.5524 29.8503 29.6519 29.7672 29.7356C29.684 29.8194 29.5851 29.8859 29.4761 29.9313C29.3671 29.9767 29.2502 30.0001 29.1321 30.0001C29.0081 30.0021 28.885 29.9789 28.7702 29.9318C28.6554 29.8847 28.5514 29.8148 28.4644 29.7263" fill="#E200F1"/>
<path d="M15.637 15.6309L1.54177 29.7262C1.45509 29.815 1.35113 29.8851 1.23628 29.9322C1.12144 29.9793 0.998164 30.0023 0.874067 29.9999C0.755446 30.0008 0.637834 29.9781 0.52807 29.9331C0.418306 29.8881 0.318566 29.8218 0.234686 29.7379C0.150805 29.654 0.0844614 29.5543 0.0394763 29.4445C-0.00550869 29.3347 -0.0282072 29.2171 -0.0273186 29.0985V14.9966C-0.0273219 14.8785 -0.00398937 14.7616 0.0413918 14.6526C0.0867729 14.5437 0.153299 14.4447 0.23709 14.3615C0.320881 14.2784 0.420294 14.2126 0.529619 14.168C0.638944 14.1235 0.75601 14.101 0.874067 14.1019H15.0027C15.183 14.0943 15.3614 14.1414 15.5144 14.2371C15.6674 14.3327 15.7879 14.4724 15.8601 14.6377C15.9324 14.8031 15.9529 14.9864 15.919 15.1637C15.8852 15.3409 15.7985 15.5038 15.6704 15.6309" fill="#FF59FF"/>
<path d="M1.79785 26.9284L12.835 15.8979H1.79785V26.9284Z" fill="#FF59FF"/>
<path d="M0.266569 28.4644L14.3618 14.3691C14.4481 14.2801 14.5521 14.2104 14.6672 14.1644C14.7822 14.1183 14.9057 14.0971 15.0295 14.102C15.2668 14.102 15.4944 14.1963 15.6622 14.3641C15.83 14.5319 15.9243 14.7594 15.9243 14.9967V29.0987C15.9251 29.2167 15.9027 29.3338 15.8581 29.4431C15.8135 29.5524 15.7477 29.6519 15.6645 29.7357C15.5814 29.8195 15.4825 29.886 15.3735 29.9313C15.2645 29.9767 15.1476 30.0001 15.0295 30.0001H0.900897C0.782543 30.0012 0.665206 29.978 0.556122 29.9321C0.447039 29.8862 0.348505 29.8184 0.266569 29.733C0.182179 29.6503 0.115131 29.5516 0.0693625 29.4427C0.0235938 29.3338 0 29.2168 0 29.0987C0 28.9805 0.0235938 28.8636 0.0693625 28.7547C0.115131 28.6457 0.182179 28.547 0.266569 28.4644Z" fill="#F41AFA"/>
<path d="M14.1037 17.1733L3.07324 28.2038H14.1037V17.1733Z" fill="#F41AFA"/>
<path d="M14.3623 14.3624L28.4575 0.267156C28.5448 0.17952 28.649 0.110619 28.7639 0.0646923C28.8787 0.0187661 29.0016 -0.00321323 29.1253 7.7648e-05C29.2428 7.7648e-05 29.3591 0.0232126 29.4677 0.0681767C29.5762 0.113141 29.6748 0.17906 29.7579 0.262143C29.841 0.345226 29.9069 0.443857 29.9519 0.55241C29.9969 0.660963 30.02 0.777303 30.02 0.8948V14.9967C30.0209 15.1148 29.9984 15.2319 29.9538 15.3412C29.9092 15.4505 29.8435 15.5499 29.7603 15.6337C29.6771 15.7175 29.5782 15.784 29.4692 15.8294C29.3602 15.8748 29.2433 15.8981 29.1253 15.8981H15.0033C14.8231 15.9037 14.6453 15.855 14.493 15.7585C14.3407 15.6619 14.2209 15.5219 14.149 15.3566C14.0771 15.1912 14.0564 15.0081 14.0897 14.8308C14.123 14.6536 14.2086 14.4905 14.3356 14.3624" fill="#BC00DE"/>
<path d="M28.2053 3.07153L17.1748 14.102H28.2053V3.07153Z" fill="#BC00DE"/>
<path d="M29.7386 1.53584L15.6433 15.6311C15.5552 15.7175 15.4508 15.7856 15.3362 15.8314C15.2216 15.8773 15.099 15.9 14.9756 15.8982C14.857 15.8991 14.7394 15.8764 14.6296 15.8314C14.5199 15.7864 14.4202 15.72 14.3363 15.6361C14.2524 15.5523 14.186 15.4525 14.141 15.3428C14.0961 15.233 14.0734 15.1154 14.0742 14.9968V0.894851C14.0742 0.77679 14.0976 0.659902 14.143 0.550912C14.1884 0.441921 14.2549 0.34298 14.3387 0.259809C14.4224 0.176639 14.5219 0.110881 14.6312 0.0663117C14.7405 0.0217422 14.8576 -0.000752998 14.9756 0.000128053H29.0776C29.2008 -0.00442932 29.3236 0.0163257 29.4384 0.0611157C29.5533 0.105906 29.6577 0.173768 29.7453 0.260523C29.9129 0.430446 30.0068 0.659528 30.0068 0.898193C30.0068 1.13686 29.9129 1.36592 29.7453 1.53584" fill="#9900CC"/>
<path d="M15.8994 12.8266L26.9366 1.79614H15.8994V12.8266Z" fill="#9900CC"/>
</g>
<path d="M47.2065 7.5C48.3298 7.5 49.3322 7.73726 50.2135 8.21177C51.1121 8.68629 51.8121 9.38925 52.3133 10.3207C52.8145 11.2522 53.065 12.377 53.065 13.6951V22.2627H50.1358V14.1432C50.1358 12.8427 49.816 11.8497 49.1766 11.1643C48.5372 10.4614 47.6644 10.1098 46.5584 10.1098C45.4524 10.1098 44.5711 10.4614 43.9143 11.1643C43.2749 11.8497 42.9552 12.8427 42.9552 14.1432V22.2627H40V7.73726H42.9552V9.39807C43.439 8.80056 44.0526 8.33476 44.7957 8.00088C45.5561 7.66699 46.3597 7.5 47.2065 7.5ZM69.427 14.6441C69.427 15.1889 69.3924 15.6811 69.3233 16.1204H58.4099C58.4962 17.2803 58.9196 18.2118 59.6801 18.9148C60.4404 19.6177 61.3736 19.9692 62.4797 19.9692C64.0696 19.9692 65.1929 19.2927 65.8497 17.9394H69.0382C68.606 19.275 67.8198 20.3735 66.6792 21.2346C65.5558 22.0782 64.156 22.5 62.4797 22.5C61.1144 22.5 59.8875 22.1925 58.7987 21.5773C57.7272 20.9446 56.8804 20.0659 56.2583 18.9411C55.6534 17.7987 55.351 16.4806 55.351 14.9868C55.351 13.493 55.6447 12.1836 56.2324 11.0589C56.8372 9.91649 57.6754 9.03782 58.7469 8.42267C59.8356 7.80752 61.0799 7.5 62.4797 7.5C63.8277 7.5 65.0287 7.7988 66.083 8.39631C67.1371 8.99382 67.958 9.8374 68.5456 10.9271C69.1332 11.9991 69.427 13.2381 69.427 14.6441ZM66.3422 13.6951C66.3249 12.5879 65.936 11.7004 65.1757 11.0325C64.4152 10.3646 63.4734 10.0308 62.3501 10.0308C61.3305 10.0308 60.4578 10.3646 59.7319 11.0325C59.0061 11.6827 58.574 12.5703 58.4358 13.6951H66.3422ZM78.0321 22.5C76.6841 22.5 75.4658 22.1925 74.377 21.5773C73.2883 20.9446 72.4328 20.0659 71.8107 18.9411C71.1885 17.7987 70.8775 16.4806 70.8775 14.9868C70.8775 13.5105 71.1972 12.2013 71.8366 11.0589C72.4761 9.91649 73.3488 9.03782 74.4548 8.42267C75.5609 7.80752 76.7965 7.5 78.1617 7.5C79.5271 7.5 80.7627 7.80752 81.8687 8.42267C82.9748 9.03782 83.8475 9.91649 84.4869 11.0589C85.1264 12.2013 85.446 13.5105 85.446 14.9868C85.446 16.4631 85.1177 17.7724 84.4609 18.9148C83.8043 20.0572 82.9056 20.9446 81.765 21.5773C80.6417 22.1925 79.3974 22.5 78.0321 22.5ZM78.0321 19.8902C78.7926 19.8902 79.5011 19.7056 80.1578 19.3366C80.8318 18.9675 81.3761 18.4139 81.7909 17.6757C82.2057 16.9376 82.413 16.0413 82.413 14.9868C82.413 13.9323 82.2143 13.0449 81.8168 12.3243C81.4194 11.5861 80.8923 11.0325 80.2355 10.6634C79.5789 10.2944 78.8703 10.1098 78.1099 10.1098C77.3496 10.1098 76.641 10.2944 75.9842 10.6634C75.3448 11.0325 74.8351 11.5861 74.4548 12.3243C74.0746 13.0449 73.8845 13.9323 73.8845 14.9868C73.8845 16.551 74.2733 17.7637 75.051 18.6248C75.846 19.4684 76.8397 19.8902 78.0321 19.8902ZM95.0754 7.5C96.1987 7.5 97.201 7.73726 98.0824 8.21177C98.9811 8.68629 99.681 9.38925 100.182 10.3207C100.683 11.2522 100.934 12.377 100.934 13.6951V22.2627H98.0046V14.1432C98.0046 12.8427 97.685 11.8497 97.0455 11.1643C96.4061 10.4614 95.5334 10.1098 94.4273 10.1098C93.3213 10.1098 92.4399 10.4614 91.7832 11.1643C91.1438 11.8497 90.824 12.8427 90.824 14.1432V22.2627H87.8689V7.73726H90.824V9.39807C91.308 8.80056 91.9215 8.33476 92.6646 8.00088C93.425 7.66699 94.2286 7.5 95.0754 7.5Z" fill="black"/>
</svg>

<svg xmlns="http://www.w3.org/2000/svg" fill="none" viewBox="0 0 101 30">
  <mask id="neon_svg__a" width="30" height="30" x="0" y="0" maskUnits="userSpaceOnUse" style="mask-type:luminance">
    <path fill="#fff" d="M30 0H0v30h30V0Z"/>
  </mask>
  <g mask="url(#neon_svg__a)">
    <path fill="#FF86FF" d="M12.835 14.102 1.798 3.072v11.03h11.037Z"/>
    <path fill="#FF86FF" d="m1.542.267 14.096 14.095a.902.902 0 0 1-.668 1.536H.901A.894.894 0 0 1 0 14.997V.895A.901.901 0 0 1 1.542.267Z"/>
    <path fill="#E200F1" d="m17.175 15.898 11.03 11.03v-11.03h-11.03Z"/>
    <path fill="#E200F1" d="M28.458 29.726 14.363 15.631a.901.901 0 0 1 0-1.269.914.914 0 0 1 .667-.26h14.102a.895.895 0 0 1 .895.895v14.102a.894.894 0 0 1-.895.901.914.914 0 0 1-.668-.274"/>
    <path fill="#FF59FF" d="M15.637 15.63 1.542 29.727A.909.909 0 0 1 .874 30a.894.894 0 0 1-.901-.901V14.997a.895.895 0 0 1 .901-.895h14.129a.894.894 0 0 1 .667 1.529"/>
    <path fill="#FF59FF" d="m1.798 26.928 11.037-11.03H1.798v11.03Z"/>
    <path fill="#F41AFA" d="M.267 28.464 14.362 14.37a.88.88 0 0 1 .668-.267.895.895 0 0 1 .894.895V29.1a.896.896 0 0 1-.894.901H.9a.868.868 0 0 1-.633-.267.888.888 0 0 1 0-1.269Z"/>
    <path fill="#F41AFA" d="m14.104 17.173-11.03 11.03h11.03v-11.03Z"/>
    <path fill="#BC00DE" d="M14.362 14.362 28.457.267A.908.908 0 0 1 29.125 0a.895.895 0 0 1 .895.895v14.102a.894.894 0 0 1-.895.901H15.003a.901.901 0 0 1-.667-1.536"/>
    <path fill="#BC00DE" d="m28.205 3.072-11.03 11.03h11.03V3.072Z"/>
    <path fill="#90C" d="M29.739 1.536 15.643 15.63a.933.933 0 0 1-.667.267.894.894 0 0 1-.902-.901V.895A.894.894 0 0 1 14.976 0h14.102a.901.901 0 0 1 .667.26.908.908 0 0 1 0 1.276"/>
    <path fill="#90C" d="m15.9 12.827 11.037-11.03H15.899v11.03Z"/>
  </g>
  <path fill="#000" d="M47.206 7.5c1.124 0 2.126.237 3.008.712.898.474 1.598 1.177 2.1 2.109.5.931.751 2.056.751 3.374v8.568h-2.93v-8.12c0-1.3-.319-2.293-.958-2.979-.64-.703-1.513-1.054-2.619-1.054-1.106 0-1.987.351-2.644 1.054-.64.686-.959 1.679-.959 2.98v8.119H40V7.737h2.955v1.661a4.92 4.92 0 0 1 1.84-1.397 5.935 5.935 0 0 1 2.411-.501Zm22.221 7.144c0 .545-.035 1.037-.104 1.476H58.41c.086 1.16.51 2.092 1.27 2.795.76.703 1.694 1.054 2.8 1.054 1.59 0 2.713-.676 3.37-2.03h3.188c-.432 1.336-1.218 2.434-2.359 3.296-1.123.843-2.523 1.265-4.2 1.265-1.365 0-2.591-.308-3.68-.923a6.842 6.842 0 0 1-2.54-2.636c-.606-1.142-.908-2.46-.908-3.954 0-1.494.294-2.803.881-3.928.605-1.143 1.443-2.021 2.515-2.636 1.089-.615 2.333-.923 3.733-.923 1.348 0 2.549.299 3.603.896a6.261 6.261 0 0 1 2.463 2.531c.587 1.072.881 2.311.881 3.717Zm-3.085-.949c-.017-1.107-.406-1.995-1.166-2.662-.76-.668-1.703-1.002-2.826-1.002-1.02 0-1.892.334-2.618 1.002-.726.65-1.158 1.537-1.296 2.662h7.906Zm11.69 8.805c-1.348 0-2.566-.308-3.655-.923a6.785 6.785 0 0 1-2.566-2.636c-.623-1.142-.934-2.46-.934-3.954 0-1.476.32-2.786.96-3.928.64-1.143 1.512-2.021 2.618-2.636 1.106-.615 2.341-.923 3.707-.923 1.365 0 2.6.308 3.707.923 1.106.615 1.978 1.493 2.618 2.636.64 1.142.959 2.452.959 3.928s-.328 2.785-.985 3.928a6.942 6.942 0 0 1-2.696 2.662c-1.123.615-2.368.923-3.733.923Zm0-2.61c.76 0 1.47-.184 2.126-.553.674-.37 1.218-.923 1.633-1.661.415-.738.622-1.635.622-2.69 0-1.054-.199-1.941-.596-2.662-.398-.738-.925-1.291-1.581-1.66a4.268 4.268 0 0 0-2.126-.554 4.27 4.27 0 0 0-2.126.553c-.64.37-1.149.923-1.53 1.661-.38.72-.57 1.608-.57 2.663 0 1.564.39 2.777 1.167 3.638.795.843 1.789 1.265 2.981 1.265ZM95.075 7.5c1.124 0 2.126.237 3.007.712.9.474 1.599 1.177 2.1 2.109.501.931.752 2.056.752 3.374v8.568h-2.93v-8.12c0-1.3-.319-2.293-.959-2.979-.639-.703-1.512-1.054-2.618-1.054-1.106 0-1.987.351-2.644 1.054-.64.686-.959 1.679-.959 2.98v8.119h-2.955V7.737h2.955v1.661a4.922 4.922 0 0 1 1.84-1.397 5.935 5.935 0 0 1 2.411-.501Z"/>
</svg>
